X: 1134
T: Kitty of Oulart
M: 6/8
L: 1/8
R: double jig
K: D Major
|: a/g/ | 
fad fed | fad fed | b2 g a2 f | e>fe efg | 
fad fed | f/g/ad fed | b2 g afa | d>ed d2 :|
|: A | 
d2 d efg | fed cBA | B<dB AFD | E>FE E2 A | 
dcd ee/f/g | fed cBA | B<dB AFA | D>ED D2 :|
